X:221
T:The Humming Bird Jig
R:jig
C:Bruce Osborne - Sept. 2002
Z:abc by bosborne@kos.net
M:6/8
L:1/8
K:Bb
F/E/|DB,D FDF|BAB dcB|AFA cAc|gf=e f2 F/E/|\
DB,D FDF|BAB dcB|AFA cAc|ecA B2:|
|:A|G^FG GAB|FDB, B,DF|BAB Bcd|dcB c2 A|\
G^FG GAB|FDB, B,DF|BAB Bcd|cBA B2:|
